X:1
T:Title
%%score ( 1 2 ) { 3 | 4 }
L:1/8
Q:1/4=110
M:4/4
K:D
V:1 treble nm="Grand Piano, Soprano"
V:2 treble 
V:3 bass nm="Choir Pad, Now All the Bells Are Ringing"
V:4 bass 
V:1
 AA A4 A2 | AA A4 A2 | z2 e4 z2 | z8 | d2 c2 B2 A2 | G2 F2 E2 D2 | F2 [FA]2 [Fd]2 [DB]2 | %7
w: By~John~Bacchus~Dykes * * *|||||||
 [Gd]2 [Fd]6 | [Ad]2 [Ac]2 [^GB]2 A2 | [Dd]2 [Ec]2 [FB]2 A2 | [Ff]2 [ce]2 [Bd]2 [Ac]2 | [^GB]2 A6 | %12
w: |||||
 [CA]2 [CA]2- [CA][CA] [DB]2 | z2 d4 z2 | [^DB]2 [DB]2- [DB][DB] [Ec]2 | [F^d]2 [Ee]6 | %16
w: ||||
 [GB]2 [Gd]2 [Gc]2 [GB]2 | [Gc]2 [Ge]2 [Fd]2 [Ac]2 | [GB]2 [FA]2- [FA][Gd] [Ad]2 | [Gc]2 [Fd]6 | %20
w: ||||
 AA A4 A2 | AA A4 A2 | A[Fd] [Ff]4 [Ge]2- | [Ge]2 [Fd]6- | [Fd]2 z2 z4 |] %25
w: |||||
V:2
 x8 | x8 | AA A4- [Ac]2- | [Ac]2 A6 | x8 | x8 | x8 | x8 | x8 | x8 | x8 | x8 | x8 | %13
 [Ec]2 D2 E2 [FA]2 | x8 | x8 | x8 | x8 | x8 | x8 | x8 | x8 | x8 | x8 | x8 |] %25
V:3
 A,A, A,4 A,2 | A,A, A,4 A,2 | A,A,[K:treble] C4 E2- | E2 C6 | D2 C2[K:bass] B,2 A,2 | %5
 G,2 F,2 E,2 D,2 | A,2 D2 A,2 B,2 | B,2 A,6 | F2 E2 D2 C2 | A,2[K:bass] A,4 E,2 | A,2 A,2 B,2 C2 | %11
 D2 C6 | A,2 G,2- G,E, A,2 | G,2 F,2 G,2 A,2 | A,2 A,2- A,F, B,2 | A,2 G,6 | E2 E2 E2 D2 | %17
 E2 C2 D2 D2 | D2 D2- DD F2 | E2 D6 | A,A, A,4 A,2 | A,A, A,4 A,2 | DD D4 C2- | C2 D6- | %24
 D2 z2 z4 |] %25
V:4
 z8 | z8 | z2 A,6- | A,2 A,6 | z8 | z8 | D,2 D,2 D,2 G,2 | G,2 D,6 | D,2 E,2 E,2 F,2 | %9
 F,2 E,2 D,2 C,2 | D,2 E,2 E,2 E,2 | E,2 A,6 | A,,2 A,,2- A,,A,, A,,2 | A,,2 D,4 D,2 | %14
 B,,2 B,,2- B,,B,, B,,2 | B,,2 E,6 | E,2 A,2 A,2 A,2 | A,2 ^A,2 B,2 F,2 | G,2 A,2- A,B, A,2 | %19
 A,2 D,6 | z8 | z8 | F,D, A,6- | A,2 D,6- | D,2 z2 z4 |] %25

